Papirus/48x48/apps/jitsi.svg

<svg xmlns="http://www.w3.org/2000/svg" width="48" height="48" version="1">
 <circle fill="#37a0f2" cx="24" cy="24" r="20"/>
 <path fill="#fff" opacity=".2" d="m24 4c-11.079 0-19.998 8.92-19.998 20 0 0.16772-0.004 0.33329 0 0.5 0.2642-10.846 9.087-19.5 19.998-19.5s19.734 8.6536 19.998 19.5c0.004-0.16671 0-0.33228 0-0.5 0-11.08-8.919-20-19.998-20z"/>
 <path opacity=".2" d="m43.979 24.418a20 20 0 0 1 -19.979 19.582 20 20 0 0 1 -19.978 -19.418 20 20 0 0 0 -0.022 0.418 20 20 0 0 0 20 20 20 20 0 0 0 20 -20 20 20 0 0 0 -0.021 -0.582z"/>
 <path opacity=".2" d="m30.74 10.002c-0.152 1.5552-0.3785 3.2849-1.4375 5.1211-0.332 0.57806-0.15358 0.47326 0.60742-0.25781h0.002c0.484-0.46505 1.1289-1.2266 1.2969-2.3867 0.098-1.0391-0.15575-1.6795-0.46875-2.4766zm-0.71484 2.3535c-0.01433 0.0021-0.03244 0.01686-0.05469 0.04492-1.152 1.4571-3.0203 1.9259-3.6133 2.2539-1.613 0.68007-1.6678 1.9652-1.7578 3.3594 0.676-0.61306 2.801-1.0625 3.375-1.5586 1.5891-1.3773 2.2657-4.1308 2.0508-4.0996zm0.17188 3.0703c-0.102 0-1.2033 0.81954-1.4883 1.1016-0.645 0.64506-0.33219 1.8197 0.38281 2.2188 1.211 0.68007 2.1047-0.81302 1.7617-2.1602-0.129-0.50805-0.54325-1.1602-0.65625-1.1602zm-2.2266 1.4746c-1.98 0.63706-3.0511 1.1854-3.3711 1.4395-0.656 1.6722 0.668 2.9294 1.875 3.8125 1.586-0.37504 2.9061-1.5506 3.4961-2.8438-0.309 0.043-0.637-0.01573-1-0.21875-0.707-0.39804-1.137-1.3564-1-2.1895zm5.0508 2.3027c-0.12329-0.01128-0.24222 0.0039-0.35547 0.04687-0.387 0.14502-0.64081 1.133-0.50781 1.7461 0.445 2.1802 2.2772 4.6993 1.8242 6.8555-0.34 1.0311-3.3477 1.6719-3.3477 1.6719s-0.06083 0.88332-0.17383 1.4844c-0.137 0.73007-0.41211 1.3086-0.41211 1.3086s0.71324 0.64062 0.74023 0.64062c0.031 0 4.5003-2.319 4.1953-10.465h0.002c-0.07175-1.8561-1.1018-3.2101-1.9648-3.2891zm-1.082 0.10547c-0.645 0.15202-1.2502 0.46071-1.7812 0.84375-0.871 1.1911-2.0776 2.1522-3.6836 2.5312-0.609-0.44504-1.3524-0.96082-1.8594-1.5469-2.324 0.26603-5.5232 0.78031-6.0742 3.0195-0.574 2.3242 0.9485 5.3611 2.1875 5.5371 1.176 0.16402 4.9572-0.88686 6.7852-1.3789-1.531-1.1951-3.2929-1.7192-4.2539-1.7812-1.133-0.09001-2.109 0.11297-3.125 0.375 1.484-0.9571 2.8282-1.6734 4.1562-1.9395 0.996-0.18802 2.5433-0.19507 4.4023 0.5 2.305 0.86309 2.8547 2.0944 4.4727 2.6484 1.07-0.16802 0.52669-1.3546 0.30469-2.1797-0.148-0.44904-0.2655-0.78848-0.3125-0.9375-0.082-0.25002-1.2382-3.2086-1.4062-3.9707-0.11288-0.5195-0.01606-1.1929 0.1875-1.7207zm-6.5137 5.9473c-2.7432 0.0355-4.6446 1.3813-4.584 1.3594 0.887-0.28103 1.8895-0.53513 3.1895-0.45312 1.051 0.07001 2.4488 0.73383 4.1758 2.168 1.16 1.0201 2.9182 1.148 4.7852 0.0039l0.0059-0.002c-0.742-0.30103-0.99975-0.43036-1.9688-1.1484-2.0081-1.5002-3.9576-1.949-5.6035-1.9277zm2.3262 3.2715c-0.055 0-0.09775 0.00025-0.21875 0.03125-1.555 0.43404-5.5274 1.4489-6.1484 2.125-0.242 0.51605-0.47975 2.5738-3.9688 3.8789-0.098 0.035 2.9298 1.992 3.0938 2 9.883 0.41404 9.8712-6.676 9.7422-7-0.961 0.016-1.7772-0.31944-2.4062-0.9375-0.031-0.031-0.05875-0.06275-0.09375-0.09375v-0.0039zm-12.215 2.2305c-0.8295 0.02055-2.3092 2.2023-2.4805 3.7969-0.289 2.4492 0.61309 5.2733 0.74609 5.4453 0.21491-1.9993 0.406-3.1084 3.668-4.9512-0.007-0.0046-1.5983-1.0621-1.5664-1.4004 0.39412-2.1373 0.13051-2.903-0.36719-2.8906zm1.9336 4.291c0.000016 0.00001 0.0039 0.002 0.0039 0.002v-0.0039c-0.0014 0.000789-0.0025 0.0012-0.0039 0.002zm-1.1445-4.0781c0.168 0.42204 0.15625 1.2226-0.09375 2.5938-0.004 0.012 0 0.02025 0 0.03125 0.176 0.24602 0.53934 0.54247 0.90234 0.8125 1.25-0.58206 2.8198-1.6715 2.7188-1.6875-0.668-0.11301-2.7343-0.61689-3.5273-1.75z"/>
 <path fill="#f5ff71" d="m30.74 9c-0.152 1.555-0.378 3.285-1.437 5.121-0.332 0.578-0.154 0.473 0.607-0.258h0.002c0.484-0.465 1.129-1.226 1.297-2.386 0.098-1.04-0.156-1.6799-0.469-2.477zm-0.715 2.354c-0.014 0.002-0.032 0.016-0.054 0.044-1.152 1.458-3.021 1.926-3.614 2.254-1.613 0.68-1.667 1.966-1.757 3.36 0.676-0.613 2.801-1.063 3.375-1.559 1.589-1.377 2.265-4.131 2.05-4.099zm0.172 3.07c-0.102 0-1.203 0.819-1.488 1.101-0.645 0.645-0.332 1.82 0.383 2.219 1.211 0.68 2.105-0.813 1.762-2.16-0.129-0.508-0.544-1.16-0.657-1.16zm-2.226 1.474c-1.98 0.638-3.051 1.186-3.371 1.44-0.656 1.672 0.668 2.929 1.875 3.812 1.586-0.375 2.906-1.55 3.496-2.843-0.309 0.043-0.637-0.016-1-0.219-0.707-0.398-1.137-1.356-1-2.19zm5.05 2.303c-0.123-0.011-0.242 0.004-0.355 0.047-0.387 0.145-0.641 1.133-0.508 1.746 0.445 2.18 2.277 4.699 1.824 6.856-0.34 1.031-3.347 1.671-3.347 1.671s-0.061 0.884-0.174 1.485c-0.137 0.73-0.412 1.308-0.412 1.308s0.713 0.641 0.74 0.641c0.031 0 4.5-2.319 4.195-10.465h0.002c-0.071-1.856-1.101-3.21-1.965-3.289zm-1.082 0.106c-0.645 0.152-1.25 0.46-1.781 0.843-0.871 1.192-2.077 2.153-3.683 2.532-0.609-0.445-1.353-0.961-1.86-1.547-2.324 0.266-5.523 0.78-6.074 3.019-0.574 2.325 0.949 5.361 2.188 5.537 1.176 0.164 4.957-0.886 6.785-1.379-1.531-1.195-3.293-1.719-4.254-1.781-1.133-0.09-2.109 0.113-3.125 0.375 1.484-0.957 2.828-1.673 4.156-1.939 0.996-0.188 2.543-0.195 4.402 0.5 2.305 0.863 2.855 2.094 4.473 2.648 1.07-0.168 0.527-1.354 0.305-2.179-0.148-0.449-0.266-0.789-0.313-0.938-0.082-0.25-1.238-3.209-1.406-3.971-0.113-0.519-0.016-1.193 0.187-1.72zm-6.513 5.947c-2.743 0.035-4.645 1.381-4.584 1.359 0.887-0.281 1.889-0.535 3.189-0.453 1.051 0.07 2.449 0.734 4.176 2.168 1.16 1.02 2.918 1.148 4.785 0.004l0.006-0.002c-0.742-0.301-1-0.43-1.969-1.148-2.008-1.501-3.957-1.949-5.603-1.928zm2.326 3.271c-0.055 0-0.098 0.001-0.219 0.032-1.555 0.434-5.527 1.449-6.148 2.125-0.242 0.516-0.48 2.573-3.969 3.879-0.098 0.035 2.93 1.992 3.094 2 9.883 0.414 9.871-6.676 9.742-7-0.961 0.016-1.777-0.32-2.406-0.938-0.031-0.031-0.059-0.063-0.094-0.094v-0.004zm-12.215 2.231c-0.829 0.02-2.309 2.202-2.48 3.797-0.289 2.449 0.613 5.273 0.746 5.445 0.215-1.999 0.406-3.108 3.668-4.951-0.007-0.005-1.599-1.062-1.567-1.401 0.394-2.137 0.131-2.902-0.367-2.89zm1.934 4.291l0.004 0.002v-0.004c-0.002 0.001-0.003 0.001-0.004 0.002zm-1.145-4.078c0.168 0.422 0.156 1.222-0.094 2.593-0.004 0.012 0 0.021 0 0.032 0.176 0.246 0.54 0.542 0.903 0.812 1.25-0.582 2.82-1.671 2.719-1.687-0.668-0.113-2.735-0.617-3.528-1.75z"/>
</svg>

<svg xmlns="http://www.w3.org/2000/svg" width="48" height="48" version="1">
 <circle style="opacity:0.2" cx="24" cy="25" r="20"/>
 <circle style="fill:#37a0f2" cx="24" cy="24" r="20"/>
 <path style="opacity:0.2;fill:#ffffff" d="M 24,4 C 12.921,4 4.002,12.92 4.002,24 4.002,24.168 3.998,24.333 4.002,24.5 4.2662,13.654 13.089,5 24,5 34.911,5 43.734,13.654 43.998,24.5 44.002,24.333 43.998,24.168 43.998,24 43.998,12.92 35.079,4 24,4 Z"/>
 <path style="opacity:0.2" d="M 30.74,10.002 C 30.588,11.557 30.361,13.287 29.302,15.123 28.97,15.701 29.149,15.596 29.91,14.865 H 29.912 C 30.396,14.4 31.041,13.639 31.209,12.479 31.307,11.439 31.053,10.799 30.74,10.002 Z M 30.025,12.356 C 30.011,12.358 29.993,12.372 29.97,12.4 28.818,13.858 26.95,14.326 26.357,14.654 24.744,15.334 24.689,16.62 24.599,18.014 25.275,17.401 27.4,16.951 27.974,16.455 29.563,15.078 30.24,12.324 30.025,12.356 Z M 30.197,15.426 C 30.095,15.426 28.994,16.245 28.709,16.527 28.064,17.172 28.377,18.347 29.092,18.746 30.303,19.426 31.196,17.933 30.853,16.586 30.724,16.078 30.31,15.426 30.197,15.426 Z M 27.97,16.9 C 25.99,17.537 24.919,18.086 24.599,18.34 23.943,20.012 25.267,21.269 26.474,22.152 28.06,21.777 29.38,20.602 29.97,19.309 29.661,19.352 29.333,19.293 28.97,19.09 28.263,18.692 27.833,17.733 27.97,16.9 Z M 33.021,19.203 C 32.898,19.192 32.779,19.207 32.666,19.25 32.279,19.395 32.025,20.383 32.158,20.996 32.603,23.176 34.435,25.695 33.982,27.852 33.642,28.883 30.634,29.523 30.634,29.523 30.634,29.523 30.574,30.407 30.461,31.008 30.324,31.738 30.049,32.316 30.049,32.316 30.049,32.316 30.762,32.957 30.789,32.957 30.82,32.957 35.289,30.638 34.984,22.492 H 34.986 C 34.914,20.636 33.884,19.282 33.021,19.203 Z M 31.939,19.309 C 31.294,19.461 30.689,19.769 30.158,20.152 29.287,21.343 28.08,22.305 26.474,22.684 25.865,22.238 25.122,21.723 24.615,21.137 22.291,21.403 19.092,21.917 18.541,24.156 17.967,26.48 19.489,29.517 20.728,29.693 21.904,29.857 25.686,28.806 27.514,28.314 25.983,27.119 24.221,26.595 23.26,26.533 22.127,26.443 21.151,26.646 20.135,26.908 21.619,25.951 22.963,25.235 24.291,24.969 25.287,24.781 26.834,24.774 28.693,25.469 30.998,26.332 31.548,27.563 33.166,28.117 34.236,27.949 33.693,26.762 33.471,25.937 33.323,25.488 33.205,25.149 33.158,25 33.076,24.75 31.92,21.791 31.752,21.029 31.639,20.51 31.736,19.836 31.939,19.308 Z M 25.426,25.256 C 22.682,25.291 20.781,26.637 20.842,26.615 21.729,26.334 22.731,26.08 24.031,26.162 25.082,26.232 26.48,26.896 28.207,28.33 29.367,29.35 31.125,29.478 32.992,28.334 L 32.998,28.332 C 32.256,28.031 31.998,27.902 31.029,27.184 29.021,25.683 27.072,25.235 25.426,25.256 Z M 27.752,28.527 C 27.697,28.527 27.654,28.528 27.533,28.559 25.978,28.993 22.006,30.008 21.385,30.684 21.143,31.2 20.905,33.257 17.416,34.563 17.318,34.598 20.346,36.555 20.51,36.563 30.393,36.977 30.381,29.887 30.252,29.563 29.291,29.579 28.475,29.243 27.846,28.625 27.815,28.594 27.787,28.562 27.752,28.531 Z M 15.537,30.758 C 14.707,30.778 13.228,32.96 13.056,34.555 12.767,37.004 13.669,39.828 13.802,40 14.017,38.001 14.208,36.892 17.47,35.049 17.463,35.044 15.872,33.987 15.904,33.648 16.298,31.511 16.034,30.745 15.537,30.758 Z M 17.47,35.049 C 17.47,35.049 17.474,35.051 17.474,35.051 V 35.047 C 17.473,35.048 17.472,35.048 17.47,35.049 Z M 16.326,30.971 C 16.494,31.393 16.482,32.193 16.232,33.565 16.228,33.577 16.232,33.585 16.232,33.596 16.408,33.842 16.771,34.138 17.134,34.408 18.384,33.826 19.954,32.737 19.853,32.721 19.185,32.608 17.119,32.104 16.326,30.971 Z"/>
 <path style="fill:#f5ff71" d="M 30.74,9 C 30.588,10.555 30.362,12.285 29.303,14.121 28.971,14.699 29.149,14.594 29.91,13.863 H 29.912 C 30.396,13.398 31.041,12.637 31.209,11.477 31.307,10.437 31.053,9.7971 30.74,9 Z M 30.025,11.354 C 30.011,11.356 29.993,11.37 29.971,11.398 28.819,12.856 26.95,13.324 26.357,13.652 24.744,14.332 24.69,15.618 24.6,17.012 25.276,16.399 27.401,15.949 27.975,15.453 29.564,14.076 30.24,11.322 30.025,11.354 Z M 30.197,14.424 C 30.095,14.424 28.994,15.243 28.709,15.525 28.064,16.17 28.377,17.345 29.092,17.744 30.303,18.424 31.197,16.931 30.854,15.584 30.725,15.076 30.31,14.424 30.197,14.424 Z M 27.971,15.898 C 25.991,16.536 24.92,17.084 24.6,17.338 23.944,19.01 25.268,20.267 26.475,21.15 28.061,20.775 29.381,19.6 29.971,18.307 29.662,18.35 29.334,18.291 28.971,18.088 28.264,17.69 27.834,16.732 27.971,15.898 Z M 33.021,18.201 C 32.898,18.19 32.779,18.205 32.666,18.248 32.279,18.393 32.025,19.381 32.158,19.994 32.603,22.174 34.435,24.693 33.982,26.85 33.642,27.881 30.635,28.521 30.635,28.521 30.635,28.521 30.574,29.405 30.461,30.006 30.324,30.736 30.049,31.314 30.049,31.314 30.049,31.314 30.762,31.955 30.789,31.955 30.82,31.955 35.289,29.636 34.984,21.49 H 34.986 C 34.915,19.634 33.885,18.28 33.021,18.201 Z M 31.939,18.307 C 31.294,18.459 30.689,18.767 30.158,19.15 29.287,20.342 28.081,21.303 26.475,21.682 25.866,21.237 25.122,20.721 24.615,20.135 22.291,20.401 19.092,20.915 18.541,23.154 17.967,25.479 19.49,28.515 20.729,28.691 21.905,28.855 25.686,27.805 27.514,27.312 25.983,26.117 24.221,25.593 23.26,25.531 22.127,25.441 21.151,25.644 20.135,25.906 21.619,24.949 22.963,24.233 24.291,23.967 25.287,23.779 26.834,23.772 28.693,24.467 30.998,25.33 31.548,26.561 33.166,27.115 34.236,26.947 33.693,25.761 33.471,24.936 33.323,24.487 33.205,24.147 33.158,23.998 33.076,23.748 31.92,20.789 31.752,20.027 31.639,19.508 31.736,18.834 31.939,18.307 Z M 25.426,24.254 C 22.683,24.289 20.781,25.635 20.842,25.613 21.729,25.332 22.731,25.078 24.031,25.16 25.082,25.23 26.48,25.894 28.207,27.328 29.367,28.348 31.125,28.476 32.992,27.332 L 32.998,27.33 C 32.256,27.029 31.998,26.9 31.029,26.182 29.021,24.681 27.072,24.233 25.426,24.254 Z M 27.752,27.525 C 27.697,27.525 27.654,27.526 27.533,27.557 25.978,27.991 22.006,29.006 21.385,29.682 21.143,30.198 20.905,32.255 17.416,33.561 17.318,33.596 20.346,35.553 20.51,35.561 30.393,35.975 30.381,28.885 30.252,28.561 29.291,28.577 28.475,28.241 27.846,27.623 27.815,27.592 27.787,27.56 27.752,27.529 Z M 15.537,29.756 C 14.708,29.776 13.228,31.958 13.057,33.553 12.768,36.002 13.67,38.826 13.803,38.998 14.018,36.999 14.209,35.89 17.471,34.047 17.464,34.042 15.872,32.985 15.904,32.646 16.298,30.509 16.035,29.744 15.537,29.756 Z M 17.471,34.047 17.475,34.049 V 34.045 C 17.473,34.046 17.472,34.046 17.471,34.047 Z M 16.326,29.969 C 16.494,30.391 16.482,31.191 16.232,32.562 16.228,32.574 16.232,32.583 16.232,32.594 16.408,32.84 16.772,33.136 17.135,33.406 18.385,32.824 19.955,31.735 19.854,31.719 19.186,31.606 17.119,31.102 16.326,29.969 Z"/>
</svg>
